tools/download-figma-icons/icons/outlined-large/engine.svg

<svg width="64" height="64" viewBox="0 0 64 64" fill="none" xmlns="http://www.w3.org/2000/svg">
<path d="M58.4299 19.26H52.4999C52.1021 19.26 51.7205 19.418 51.4392 19.6993C51.1579 19.9806 50.9999 20.3621 50.9999 20.76V26.9999H48.4499L40.6599 17.55C40.5193 17.3782 40.3423 17.2397 40.1417 17.1446C39.9411 17.0495 39.7219 17.0001 39.4999 17H28.4099V9.99998H36.0599C36.4578 9.99998 36.8393 9.84195 37.1206 9.56064C37.4019 9.27934 37.5599 8.89781 37.5599 8.49998C37.5599 8.10216 37.4019 7.72063 37.1206 7.43933C36.8393 7.15802 36.4578 6.99999 36.0599 6.99999H17.77C17.3721 6.99999 16.9906 7.15802 16.7093 7.43933C16.428 7.72063 16.27 8.10216 16.27 8.49998C16.27 8.89781 16.428 9.27934 16.7093 9.56064C16.9906 9.84195 17.3721 9.99998 17.77 9.99998H25.41V17H15C14.6021 17 14.2206 17.158 13.9393 17.4393C13.658 17.7206 13.5 18.1021 13.5 18.5V23H9.49998C9.10216 23 8.72063 23.158 8.43932 23.4393C8.15802 23.7206 7.99998 24.1021 7.99998 24.5V34.9999H2.99999V27.4999C2.99999 27.1021 2.84196 26.7206 2.56066 26.4393C2.27935 26.158 1.89782 26 1.5 26C1.10217 26 0.720643 26.158 0.439339 26.4393C0.158035 26.7206 0 27.1021 0 27.4999L0 45.4999C0 45.8977 0.158035 46.2793 0.439339 46.5606C0.720643 46.8419 1.10217 46.9999 1.5 46.9999C1.89782 46.9999 2.27935 46.8419 2.56066 46.5606C2.84196 46.2793 2.99999 45.8977 2.99999 45.4999V37.9999H7.99998V47.4999C7.99998 47.8977 8.15802 48.2793 8.43932 48.5606C8.72063 48.8419 9.10216 48.9999 9.49998 48.9999H14.5L20.71 56.4599C20.8524 56.6288 21.03 56.7646 21.2304 56.8579C21.4307 56.9512 21.649 56.9996 21.87 56.9999H46.4999C46.8977 56.9999 47.2793 56.8419 47.5606 56.5606C47.8419 56.2793 47.9999 55.8977 47.9999 55.4999V46.9999H50.9999V51.4999C50.9999 51.8977 51.1579 52.2793 51.4392 52.5606C51.7205 52.8419 52.1021 52.9999 52.4999 52.9999H58.4299C59.9196 52.9841 61.3423 52.3784 62.3863 51.3157C63.4303 50.2529 64.0105 48.8197 63.9999 47.3299V24.85C63.9999 23.3709 63.4137 21.952 62.3697 20.9043C61.3257 19.8565 59.909 19.2653 58.4299 19.26ZM60.9999 47.3299C61.0054 48.0225 60.7396 48.6898 60.2592 49.1888C59.7789 49.6879 59.1222 49.979 58.4299 49.9999H53.9999V45.4999C53.9999 45.1021 53.8419 44.7206 53.5606 44.4393C53.2793 44.158 52.8977 43.9999 52.4999 43.9999H46.4999C46.1021 43.9999 45.7206 44.158 45.4393 44.4393C45.1579 44.7206 44.9999 45.1021 44.9999 45.4999V53.9999H22.54L16.32 46.5399C16.1795 46.3712 16.0037 46.2355 15.805 46.1421C15.6063 46.0488 15.3895 46.0003 15.17 45.9999H11V26H15C15.3978 26 15.7793 25.8419 16.0606 25.5606C16.3419 25.2793 16.5 24.8978 16.5 24.5V20H38.7899L46.5799 29.4499C46.7205 29.6217 46.8975 29.7602 47.0981 29.8553C47.2987 29.9504 47.5179 29.9998 47.7399 29.9999H52.4999C52.8977 29.9999 53.2793 29.8419 53.5606 29.5606C53.8419 29.2793 53.9999 28.8978 53.9999 28.4999V22.26H58.4299C58.7687 22.2613 59.1039 22.3293 59.4165 22.4602C59.729 22.591 60.0126 22.7822 60.2513 23.0227C60.4899 23.2632 60.6789 23.5483 60.8073 23.8619C60.9358 24.1754 61.0012 24.5111 60.9999 24.85V47.3299Z" fill="black"/>
</svg>

<svg width="64" height="64" viewBox="0 0 64 64" fill="none" xmlns="http://www.w3.org/2000/svg"><path d="M58.43 19.26H52.5a1.5 1.5 0 0 0-1.5 1.5V27h-2.55l-7.79-9.45A1.5 1.5 0 0 0 39.5 17H28.41v-7h7.65a1.5 1.5 0 1 0 0-3H17.77a1.5 1.5 0 1 0 0 3h7.64v7H15a1.5 1.5 0 0 0-1.5 1.5V23h-4A1.5 1.5 0 0 0 8 24.5V35H3v-7.5a1.5 1.5 0 0 0-3 0v18a1.5 1.5 0 0 0 3 0V38h5v9.5A1.5 1.5 0 0 0 9.5 49h5l6.21 7.46a1.52 1.52 0 0 0 1.16.54H46.5a1.5 1.5 0 0 0 1.5-1.5V47h3v4.5a1.5 1.5 0 0 0 1.5 1.5h5.93A5.63 5.63 0 0 0 64 47.33V24.85a5.59 5.59 0 0 0-5.57-5.59ZM61 47.33A2.65 2.65 0 0 1 58.43 50H54v-4.5a1.5 1.5 0 0 0-1.5-1.5h-6a1.5 1.5 0 0 0-1.5 1.5V54H22.54l-6.22-7.46a1.501 1.501 0 0 0-1.15-.54H11V26h4a1.5 1.5 0 0 0 1.5-1.5V20h22.29l7.79 9.45a1.5 1.5 0 0 0 1.16.55h4.76a1.5 1.5 0 0 0 1.5-1.5v-6.24h4.43A2.58 2.58 0 0 1 61 24.85v22.48Z" fill="currentColor"/></svg>
